!! Isochronous pitch passage.
!! Bass-line.
!! From J.S. Bach, Brandenburg Concerto No. 2, 1st movement, measure 12ff.
!! Basses
!! 4/4 meter
**kern	**metpos
*M2/2	*M2/2
*tb8	*tb8
8F	4
=12	=12
8B-	1
8A	4
8G	3
8c	4
8A	2
8G	4
8F	3
8A	4
=13	=13
8G	1
8r	4
8c	3
8r	4
8F	2
8G	4
8A	3
8F	4
=14	=14
8E	1
8G	4
8E	3
8C	4
8E	2
8G	4
8c	3
8G	4
=15	=15
8E	1
8G	4
8E	3
8C	4
8E	2
8G	4
8c	3
8C	4
=16	=16
8F	1
8E	4
8D	3
8G	4
8E	2
8D	4
8C	3
8E	4
=17	=17
8F	1
8r	4
8G	3
8r	4
8C	2
8D	4
8E	3
8C	4
=18	=18
8E	1
8G	4
8E	3
8C	4
8E	2
8G	4
8c	3
8G	4
=19	=19
8E	1
8G	4
8E	3
8C	4
8E	2
8G	4
8c	3
8C	4
=20	=20
8F	1
8E	4
8D	3
8G	4
8E	2
8D	4
8E	3
8C	4
=21	=21
8F	1
8r	4
8G	3
8GG	4
8C	2
8D	4
8E	3
8C	4
=22	=22
8BBn	1
8D	4
8GG	3
8C	4
8BB	2
8D	4
8GG	3
8E	4
=23	=23
8BBn	1
8D	4
8GG	3
8C	4
8BB	2
8D	4
8GG	3
8G	4
=24	=24
8E	1
8C	4
8E	3
8G	4
8c	2
8G	4
8E	3
8G	4
=25	=25
8E	1
8C	4
8E	3
8G	4
8c	2
8G	4
8E	3
8C	4
=26	=26
8G	1
8BBn	4
8C	3
8E	4
8G	2
8BB	4
8C	3
8E	4
=27	=27
8A	1
8F	4
8G	3
8GG	4
8C	2
8r	4
8r	3
8r	4
=28	=28
*-	*-
